public/images/logo/typescript.svg

<svg width="18" height="18" viewBox="0 0 18 18" fill="none" xmlns="http://www.w3.org/2000/svg">
<path d="M16.2422 0H1.75781C0.786999 0 0 0.786999 0 1.75781V16.2422C0 17.213 0.786999 18 1.75781 18H16.2422C17.213 18 18 17.213 18 16.2422V1.75781C18 0.786999 17.213 0 16.2422 0Z" fill="currentColor"/>
<path d="M16.2422 0H1.75781C0.786999 0 0 0.786999 0 1.75781V16.2422C0 17.213 0.786999 18 1.75781 18H16.2422C17.213 18 18 17.213 18 16.2422V1.75781C18 0.786999 17.213 0 16.2422 0Z" fill="currentColor"/>
<path fill-rule="evenodd" clip-rule="evenodd" d="M11.1424 14.3235V16.0835C11.4285 16.2301 11.7669 16.3401 12.1575 16.4134C12.5482 16.4868 12.9599 16.5234 13.3927 16.5234C13.8146 16.5234 14.2153 16.4831 14.5949 16.4024C14.9746 16.3218 15.3075 16.1889 15.5936 16.0037C15.8797 15.8186 16.1062 15.5765 16.2731 15.2777C16.44 14.9789 16.5234 14.6095 16.5234 14.1695C16.5234 13.8505 16.4758 13.5709 16.3804 13.3308C16.285 13.0906 16.1475 12.8771 15.9677 12.6901C15.788 12.5031 15.5725 12.3353 15.3212 12.1868C15.07 12.0383 14.7866 11.8981 14.4712 11.7661C14.2401 11.6707 14.0328 11.5782 13.8494 11.4884C13.666 11.3985 13.5101 11.3068 13.3817 11.2134C13.2533 11.1199 13.1543 11.0209 13.0846 10.9164C13.0149 10.8118 12.9801 10.6936 12.9801 10.5616C12.9801 10.4406 13.0113 10.3315 13.0736 10.2344C13.136 10.1372 13.224 10.0538 13.3377 9.98413C13.4514 9.91448 13.5908 9.86038 13.7559 9.82188C13.921 9.78339 14.1043 9.76416 14.3061 9.76416C14.4528 9.76416 14.6078 9.77516 14.771 9.79713C14.9342 9.81914 15.0984 9.85307 15.2635 9.89887C15.4285 9.94472 15.589 10.0025 15.7449 10.0721C15.9008 10.1418 16.0448 10.2225 16.1768 10.3141V8.66967C15.909 8.56702 15.6165 8.49094 15.2992 8.44144C14.9819 8.39194 14.6179 8.36719 14.2071 8.36719C13.7889 8.36719 13.3927 8.41212 13.0186 8.50194C12.6445 8.59177 12.3153 8.732 12.031 8.92266C11.7467 9.11334 11.522 9.35624 11.357 9.65141C11.1919 9.94655 11.1094 10.2994 11.1094 10.7101C11.1094 11.2344 11.2607 11.6818 11.5633 12.0521C11.8659 12.4224 12.3253 12.7359 12.9416 12.9926C13.1837 13.0916 13.4093 13.1887 13.6183 13.284C13.8274 13.3794 14.0081 13.4784 14.1603 13.581C14.3125 13.6837 14.4326 13.7955 14.5207 13.9165C14.6087 14.0375 14.6527 14.175 14.6527 14.329C14.6527 14.4427 14.6252 14.5481 14.5702 14.6452C14.5152 14.7424 14.4317 14.8267 14.3198 14.8982C14.208 14.9697 14.0686 15.0256 13.9017 15.066C13.7348 15.1063 13.5395 15.1265 13.3157 15.1265C12.9342 15.1265 12.5564 15.0596 12.1823 14.9257C11.8081 14.7919 11.4615 14.5912 11.1424 14.3235ZM8.18367 9.98726H10.4414V8.54297H4.14844V9.98726H6.39513V16.418H8.18367V9.98726Z" fill="#F8F9FB"/>
</svg>

<svg width="18" height="18" fill="none" xmlns="http://www.w3.org/2000/svg"><path d="M16.242 0H1.758C.787 0 0 .787 0 1.758v14.484C0 17.213.787 18 1.758 18h14.484c.971 0 1.758-.787 1.758-1.758V1.758C18 .787 17.213 0 16.242 0z" fill="currentColor"/><path d="M16.242 0H1.758C.787 0 0 .787 0 1.758v14.484C0 17.213.787 18 1.758 18h14.484c.971 0 1.758-.787 1.758-1.758V1.758C18 .787 17.213 0 16.242 0z" fill="currentColor"/><path fill-rule="evenodd" clip-rule="evenodd" d="M11.142 14.323v1.76c.287.147.625.257 1.016.33.39.074.802.11 1.235.11.422 0 .822-.04 1.202-.12.38-.081.712-.214.999-.4.286-.184.512-.427.68-.725.166-.3.25-.668.25-1.109 0-.319-.048-.598-.144-.838a1.96 1.96 0 00-.412-.64 3.02 3.02 0 00-.647-.504 6.927 6.927 0 00-.85-.42 10.757 10.757 0 01-.622-.279 3.17 3.17 0 01-.467-.275 1.199 1.199 0 01-.297-.297.625.625 0 01-.105-.354c0-.121.031-.23.094-.328a.808.808 0 01.264-.25c.113-.07.253-.124.418-.162.165-.039.348-.058.55-.058a3.683 3.683 0 011.439.308c.156.07.3.15.432.242V8.67a4.298 4.298 0 00-.878-.229 7.15 7.15 0 00-1.092-.074c-.418 0-.814.045-1.188.135-.374.09-.704.23-.988.42-.284.191-.509.434-.674.73-.165.295-.248.647-.248 1.058 0 .524.152.972.454 1.342.303.37.762.684 1.379.94.242.1.467.197.676.292.21.095.39.194.542.297.152.103.273.215.36.335a.684.684 0 01.05.73.731.731 0 01-.25.252 1.373 1.373 0 01-.418.168c-.167.04-.362.06-.586.06a3.381 3.381 0 01-2.173-.803zM8.184 9.987h2.257V8.543H4.148v1.444h2.247v6.431h1.789v-6.43z" fill="#F8F9FB"/></svg>
